docs/.gitbook/assets/icon-speaker-low-16@dark.svg

<svg width="32" height="32" viewBox="0 0 16 16" fill="none" xmlns="http://www.w3.org/2000/svg">
<rect x="0" y="0" width="16" height="16" fill="#181c1f"/>
<path fill-rule="evenodd" clip-rule="evenodd" d="M9.55724 1.06582C9.82667 1.18681 10 1.45465 10 1.75V14.25C10 14.5453 9.82667 14.8132 9.55724 14.9342C9.28782 15.0552 8.97247 15.0068 8.75173 14.8106L4.82006 11.3157C4.59124 11.1123 4.29574 11 3.9896 11H2.75C1.7835 11 1 10.2165 1 9.25V6.75C1 5.7835 1.7835 5 2.75 5H3.9896C4.29574 5 4.59124 4.88765 4.82006 4.68426L8.75173 1.18944C8.97247 0.993225 9.28782 0.944828 9.55724 1.06582ZM8.5 3.42013L5.8166 5.80537C5.31321 6.25283 4.66311 6.5 3.9896 6.5H2.75C2.61193 6.5 2.5 6.61193 2.5 6.75V9.25C2.5 9.38807 2.61193 9.5 2.75 9.5H3.9896C4.66312 9.5 5.31321 9.74716 5.8166 10.1946L8.5 12.5799V3.42013ZM13.1738 6.26986C13.439 5.95165 13.9119 5.90866 14.2301 6.17383L13.75 6.75C14.2301 6.17383 14.2304 6.17406 14.2307 6.1743L14.2313 6.17478L14.2324 6.17577L14.235 6.17788L14.2405 6.18264L14.2539 6.19432C14.2637 6.20307 14.2754 6.21377 14.2887 6.22643C14.3153 6.25171 14.3483 6.285 14.3856 6.3264C14.4599 6.40894 14.5524 6.52546 14.6431 6.67663C14.8263 6.98189 15 7.4262 15 8C15 8.5738 14.8263 9.0181 14.6431 9.32337C14.5524 9.47453 14.4599 9.59106 14.3856 9.6736C14.3483 9.71499 14.3153 9.74829 14.2887 9.77357C14.2754 9.78623 14.2637 9.79692 14.2539 9.80567L14.2405 9.81736L14.235 9.82212L14.2324 9.82423L14.2313 9.82522L14.2307 9.8257C14.2304 9.82593 14.2301 9.82616 13.75 9.25L14.2301 9.82616C13.9119 10.0913 13.439 10.0483 13.1738 9.73014C12.9126 9.41666 12.9504 8.95302 13.2559 8.68579C13.2584 8.68331 13.2635 8.67809 13.2707 8.67015C13.2901 8.64852 13.3226 8.6088 13.3569 8.55163C13.4237 8.44023 13.5 8.25953 13.5 8C13.5 7.74046 13.4237 7.55977 13.3569 7.44837C13.3226 7.3912 13.2901 7.35147 13.2707 7.32985C13.2635 7.3219 13.2584 7.31668 13.2559 7.31421C12.9504 7.04697 12.9126 6.58334 13.1738 6.26986Z" fill="#fff"/>
</svg>

<svg xmlns="http://www.w3.org/2000/svg" width="32" height="32" fill="none" viewBox="0 0 16 16"><path fill="#181c1f" d="M0 0h16v16H0z"/><path fill="#fff" fill-rule="evenodd" d="M9.557 1.066A.75.75 0 0 1 10 1.75v12.5a.75.75 0 0 1-1.248.56L4.82 11.317A1.25 1.25 0 0 0 3.99 11H2.75A1.75 1.75 0 0 1 1 9.25v-2.5C1 5.784 1.784 5 2.75 5h1.24c.306 0 .601-.112.83-.316L8.752 1.19a.75.75 0 0 1 .805-.123M8.5 3.42 5.817 5.805A2.75 2.75 0 0 1 3.99 6.5H2.75a.25.25 0 0 0-.25.25v2.5c0 .138.112.25.25.25h1.24a2.75 2.75 0 0 1 1.827.695L8.5 12.58zm4.674 2.85a.75.75 0 0 1 1.056-.096l-.48.576.48-.576h.001l.001.002.003.002.006.005.013.011a2 2 0 0 1 .132.132c.074.083.166.2.257.35.183.306.357.75.357 1.324a2.55 2.55 0 0 1-.357 1.323 2.3 2.3 0 0 1-.39.483l-.012.011-.006.005-.003.002v.001h-.001l-.481-.575.48.576a.75.75 0 1 1-.96-1.156 1 1 0 0 0 .087-.118c.067-.112.143-.292.143-.552s-.076-.44-.143-.552a1 1 0 0 0-.101-.134.75.75 0 0 1-.082-1.044" clip-rule="evenodd"/></svg>
